content/icons/cuddlyferris.svg

<svg xmlns="http://www.w3.org/2000/svg" xml:space="preserve" style="fill-rule:evenodd;clip-rule:evenodd;stroke-linejoin:round;stroke-miterlimit:1.41421" viewBox="0 0 4417 3259"><path d="M525.403 293.05c-131.633 0-251.228 15.825-339.77 41.615v220.298c88.542 25.79 208.137 41.614 339.77 41.614 150.657 0 285.535-20.729 376.134-53.402V346.457c-90.599-32.676-225.477-53.407-376.134-53.407" style="fill:#8f1e1c;fill-rule:nonzero" transform="scale(4.16667)"/><path d="M907.423 492.442c-3.857-10.663-4.629-24.154-1.361-37.162 5.85-23.289 22.421-36.198 37.013-28.833 3.618 1.827 6.774 4.731 9.387 8.418.239-.001.478 0 .715.016 0 0 44.552 53.106 3.313 116.003-.895 3.569-76.534 91.718-94.043 94.524-11.46 1.836 14.891-89.998 44.976-152.966M176.479 482.021c5.3-9.63 7.158-22.788 4.217-36.425-5.266-24.416-23.91-41.11-41.642-37.285-4.398.948-8.325 3.072-11.666 6.098a14 14 0 0 0-.845-.153s-56.292 41.952-12.057 113.924c.805 3.741 83.851 108.838 104.311 115.763 13.391 4.532-11.247-92.525-42.318-161.922" style="fill:#8f1e1c;fill-rule:nonzero" transform="scale(4.16667)"/><path d="m97.467 488.066.007.015c.185.145.357.276-.007-.015" style="fill:#e33a25;fill-rule:nonzero" transform="scale(4.16667)"/><path d="M993.119 412.903c-.88-3.064-1.756-6.126-2.662-9.162l30.683-44.451c3.13-4.522 3.77-10.398 1.73-15.555-2.04-5.13-6.49-8.81-11.76-9.71l-51.886-8.805c-2.008-4.102-4.116-8.142-6.23-12.15l21.797-49.903c2.243-5.087 1.769-10.995-1.203-15.608-2.961-4.636-7.99-7.344-13.349-7.133l-52.656 1.913a435 435 0 0 0-8.322-10.521l12.101-53.49c1.225-5.433-.322-11.118-4.103-15.064-3.762-3.932-9.229-5.559-14.426-4.283l-51.289 12.608a444 444 0 0 0-10.114-8.673l1.848-54.914c.198-5.559-2.393-10.841-6.844-13.925-4.446-3.104-10.093-3.573-14.956-1.266l-47.847 22.747c-3.854-2.21-7.728-4.4-11.644-6.517l-8.455-54.115c-.857-5.482-4.385-10.138-9.326-12.265-4.923-2.138-10.568-1.448-14.891 1.808l-42.659 32.007a439 439 0 0 0-12.692-4.011l-18.386-51.317c-1.87-5.229-6.181-9.071-11.438-10.151-5.239-1.071-10.63.743-14.263 4.802L583.97 55.971c-4.342-.5-8.685-.956-13.043-1.332L543.204 7.926c-2.81-4.732-7.77-7.612-13.116-7.612-5.334 0-10.304 2.88-13.09 7.612l-27.733 46.713c-4.358.376-8.722.832-13.056 1.332l-35.91-40.172c-3.636-4.059-9.047-5.873-14.268-4.802-5.255 1.092-9.573 4.922-11.433 10.151l-18.402 51.317a509 509 0 0 0-12.691 4.011l-42.644-32.007c-4.336-3.266-9.98-3.955-14.916-1.808-4.919 2.127-8.461 6.783-9.313 12.265l-8.461 54.115a508 508 0 0 0-11.653 6.517l-47.842-22.747c-4.858-2.315-10.529-1.838-14.954 1.266-4.445 3.084-7.042 8.366-6.84 13.925l1.835 54.914a511 511 0 0 0-10.112 8.673l-51.279-12.608c-5.211-1.265-10.67.351-14.441 4.283-3.795 3.946-5.332 9.631-4.113 15.064l12.079 53.49a510 510 0 0 0-8.293 10.521l-52.655-1.913c-5.315-.157-10.387 2.497-13.356 7.133-2.975 4.613-3.425 10.521-1.211 15.608l21.814 49.903c-2.119 4.008-4.224 8.048-6.249 12.15l-51.883 8.805c-5.271.888-9.714 4.566-11.764 9.71-2.037 5.157-1.376 11.033 1.735 15.555l30.69 44.451c-.237.784-.455 1.576-.69 2.364l-16.863 17.912 45.341 64.049s435.152 200.732 838.797 3.396c46.108-8.273 56.855-78.559 56.855-78.559" style="fill:#e43a25;fill-rule:nonzero" transform="scale(4.16667)"/><path d="M608.303 376.759s48.157-52.729 96.315 0c0 0 37.84 70.312 0 105.463 0 0-61.917 49.217-96.315 0 0 0-41.279-38.672 0-105.463" style="fill:#030404;fill-rule:nonzero" transform="scale(4.16667)"/><path d="M664.057 396.32c0 20.533-12.103 37.179-27.03 37.179-14.924 0-27.027-16.646-27.027-37.179 0-20.532 12.103-37.18 27.027-37.18 14.927 0 27.03 16.648 27.03 37.18" style="fill:#fff;fill-rule:nonzero" transform="scale(4.16667)"/><path d="M393.365 362.361s82.608-36.576 105.154 45.062c0 0 23.618 95.154-67.837 100.525 0 0-116.622-22.462-37.317-145.587" style="fill:#030404;fill-rule:nonzero" transform="scale(4.16667)"/><path d="M434.855 397.668c0 21.173-12.48 38.346-27.877 38.346-15.391 0-27.874-17.173-27.874-38.346 0-21.178 12.483-38.346 27.874-38.346 15.397 0 27.877 17.168 27.877 38.346" style="fill:#fff;fill-rule:nonzero" transform="scale(4.16667)"/><path d="M111.602 499.216c10.967-12.463 37.611-27.557 35.57-46.282-3.653-33.527-31.456-57.999-62.099-54.659-7.6.828-14.658 3.292-20.924 7.036a28 28 0 0 0-1.388-.294S-40.87 455.89 18.197 557.674c.557 5.137 117.848 155.668 150.788 167.131 21.559 7.502-19.911-128.64-57.383-225.589M953.549 494.673c-12.693-10.7-46.162-20.418-46.92-39.238-1.356-33.698 22.512-62.021 53.312-63.26 7.638-.308 14.984 1.083 21.735 3.857.442-.174.884-.346 1.329-.497 0 0 110.025 34.951 66.695 144.366.21 5.163-93.468 171.416-124.345 187.635-20.209 10.615 5.506-131.431 28.194-232.863M191.142 495.558s-1.383 137.296 133.166 167.932l28.054-56.363s-97.495 9.431-104.995-111.569zM876.362 495.558s1.382 137.296-133.167 167.932l-28.054-56.363s97.495 9.431 104.995-111.569z" style="fill:#e43a25;fill-rule:nonzero" transform="scale(4.16667)"/><path d="M779.167 635.591c-20.25-48.942-85.595-68.373-145.951-43.4-53.126 21.981-84.637 71.032-77.624 115.845 41.946-.652 86.94-3.371 130.736-9.718 0 0-25.837 41.763-63.857 78.211 25.566 6.599 55.383 4.768 84.076-7.104 60.357-24.973 92.87-84.893 72.62-133.834M404.746 695.984s55.203 7.295 130.67 9.156c6.61-47.511-29.38-97.792-86.801-117.243-63.438-21.488-128.989 2.792-146.414 54.232s19.876 110.56 83.314 132.049c28.121 9.526 56.653 10.049 81.229 3.207-36.911-36.505-61.998-81.401-61.998-81.401" style="fill:#e43a25;fill-rule:nonzero" transform="scale(4.16667)"/></svg>

<?xml version="1.0" encoding="UTF-8" standalone="no"?>
<!DOCTYPE svg PUBLIC "-//W3C//DTD SVG 1.1//EN" "http://www.w3.org/Graphics/SVG/1.1/DTD/svg11.dtd">
<svg width="100%" height="100%" viewBox="0 0 4417 3259" version="1.1" xmlns="http://www.w3.org/2000/svg" xmlns:xlink="http://www.w3.org/1999/xlink" xml:space="preserve" xmlns:serif="http://www.serif.com/" style="fill-rule:evenodd;clip-rule:evenodd;stroke-linejoin:round;stroke-miterlimit:1.41421;">
    <g transform="matrix(4.16667,0,0,4.16667,0,0)">
        <path d="M525.403,293.05C393.77,293.05 274.175,308.875 185.633,334.665L185.633,554.963C274.175,580.753 393.77,596.577 525.403,596.577C676.06,596.577 810.938,575.848 901.537,543.175L901.537,346.457C810.938,313.781 676.06,293.05 525.403,293.05Z" style="fill:rgb(143,30,28);fill-rule:nonzero;"/>
        <path d="M907.423,492.442C903.566,481.779 902.794,468.288 906.062,455.28C911.912,431.991 928.483,419.082 943.075,426.447C946.693,428.274 949.849,431.178 952.462,434.865C952.701,434.864 952.94,434.865 953.177,434.881C953.177,434.881 997.729,487.987 956.49,550.884C955.595,554.453 879.956,642.602 862.447,645.408C850.987,647.244 877.338,555.41 907.423,492.442Z" style="fill:rgb(143,30,28);fill-rule:nonzero;"/>
        <path d="M176.479,482.021C181.779,472.391 183.637,459.233 180.696,445.596C175.43,421.18 156.786,404.486 139.054,408.311C134.656,409.259 130.729,411.383 127.388,414.409C127.106,414.351 126.824,414.296 126.543,414.256C126.543,414.256 70.251,456.208 114.486,528.18C115.291,531.921 198.337,637.018 218.797,643.943C232.188,648.475 207.55,551.418 176.479,482.021Z" style="fill:rgb(143,30,28);fill-rule:nonzero;"/>
        <path d="M97.467,488.066L97.474,488.081C97.659,488.226 97.831,488.357 97.467,488.066Z" style="fill:rgb(227,58,37);fill-rule:nonzero;"/>
        <path d="M993.119,412.903C992.239,409.839 991.363,406.777 990.457,403.741L1021.14,359.29C1024.27,354.768 1024.91,348.892 1022.87,343.735C1020.83,338.605 1016.38,334.925 1011.11,334.025L959.224,325.22C957.216,321.118 955.108,317.078 952.994,313.07L974.791,263.167C977.034,258.08 976.56,252.172 973.588,247.559C970.627,242.923 965.598,240.215 960.239,240.426L907.583,242.339C904.856,238.789 902.087,235.271 899.261,231.818L911.362,178.328C912.587,172.895 911.04,167.21 907.259,163.264C903.497,159.332 898.03,157.705 892.833,158.981L841.544,171.589C838.223,168.654 834.845,165.756 831.43,162.916L833.278,108.002C833.476,102.443 830.885,97.161 826.434,94.077C821.988,90.973 816.341,90.504 811.478,92.811L763.631,115.558C759.777,113.348 755.903,111.158 751.987,109.041L743.532,54.926C742.675,49.444 739.147,44.788 734.206,42.661C729.283,40.523 723.638,41.213 719.315,44.469L676.656,76.476C672.456,75.08 668.237,73.743 663.964,72.465L645.578,21.148C643.708,15.919 639.397,12.077 634.14,10.997C628.901,9.926 623.51,11.74 619.877,15.799L583.97,55.971C579.628,55.471 575.285,55.015 570.927,54.639L543.204,7.926C540.394,3.194 535.434,0.314 530.088,0.314C524.754,0.314 519.784,3.194 516.998,7.926L489.265,54.639C484.907,55.015 480.543,55.471 476.209,55.971L440.299,15.799C436.663,11.74 431.252,9.926 426.031,10.997C420.776,12.089 416.458,15.919 414.598,21.148L396.196,72.465C391.936,73.743 387.715,75.092 383.505,76.476L340.861,44.469C336.525,41.203 330.881,40.514 325.945,42.661C321.026,44.788 317.484,49.444 316.632,54.926L308.171,109.041C304.257,111.158 300.382,113.335 296.518,115.558L248.676,92.811C243.818,90.496 238.147,90.973 233.722,94.077C229.277,97.161 226.68,102.443 226.882,108.002L228.717,162.916C225.312,165.756 221.943,168.654 218.605,171.589L167.326,158.981C162.115,157.716 156.656,159.332 152.885,163.264C149.09,167.21 147.553,172.895 148.772,178.328L160.851,231.818C158.049,235.285 155.276,238.789 152.558,242.339L99.903,240.426C94.588,240.269 89.516,242.923 86.547,247.559C83.572,252.172 83.122,258.08 85.336,263.167L107.15,313.07C105.031,317.078 102.926,321.118 100.901,325.22L49.018,334.025C43.747,334.913 39.304,338.591 37.254,343.735C35.217,348.892 35.878,354.768 38.989,359.29L69.679,403.741C69.442,404.525 69.224,405.317 68.989,406.105L52.126,424.017L97.467,488.066C97.467,488.066 532.619,688.798 936.264,491.462C982.372,483.189 993.119,412.903 993.119,412.903Z" style="fill:rgb(228,58,37);fill-rule:nonzero;"/>
        <path d="M608.303,376.759C608.303,376.759 656.46,324.03 704.618,376.759C704.618,376.759 742.458,447.071 704.618,482.222C704.618,482.222 642.701,531.439 608.303,482.222C608.303,482.222 567.024,443.55 608.303,376.759Z" style="fill:rgb(3,4,4);fill-rule:nonzero;"/>
        <path d="M664.057,396.32C664.057,416.853 651.954,433.499 637.027,433.499C622.103,433.499 610,416.853 610,396.32C610,375.788 622.103,359.14 637.027,359.14C651.954,359.14 664.057,375.788 664.057,396.32Z" style="fill:white;fill-rule:nonzero;"/>
        <path d="M393.365,362.361C393.365,362.361 475.973,325.785 498.519,407.423C498.519,407.423 522.137,502.577 430.682,507.948C430.682,507.948 314.06,485.486 393.365,362.361Z" style="fill:rgb(3,4,4);fill-rule:nonzero;"/>
        <path d="M434.855,397.668C434.855,418.841 422.375,436.014 406.978,436.014C391.587,436.014 379.104,418.841 379.104,397.668C379.104,376.49 391.587,359.322 406.978,359.322C422.375,359.322 434.855,376.49 434.855,397.668Z" style="fill:white;fill-rule:nonzero;"/>
        <path d="M111.602,499.216C122.569,486.753 149.213,471.659 147.172,452.934C143.519,419.407 115.716,394.935 85.073,398.275C77.473,399.103 70.415,401.567 64.149,405.311C63.687,405.204 63.224,405.1 62.761,405.017C62.761,405.017 -40.87,455.89 18.197,557.674C18.754,562.811 136.045,713.342 168.985,724.805C190.544,732.307 149.074,596.165 111.602,499.216Z" style="fill:rgb(228,58,37);fill-rule:nonzero;"/>
        <path d="M953.549,494.673C940.856,483.973 907.387,474.255 906.629,455.435C905.273,421.737 929.141,393.414 959.941,392.175C967.579,391.867 974.925,393.258 981.676,396.032C982.118,395.858 982.56,395.686 983.005,395.535C983.005,395.535 1093.03,430.486 1049.7,539.901C1049.91,545.064 956.232,711.317 925.355,727.536C905.146,738.151 930.861,596.105 953.549,494.673Z" style="fill:rgb(228,58,37);fill-rule:nonzero;"/>
        <path d="M191.142,495.558C191.142,495.558 189.759,632.854 324.308,663.49L352.362,607.127C352.362,607.127 254.867,616.558 247.367,495.558L191.142,495.558Z" style="fill:rgb(228,58,37);fill-rule:nonzero;"/>
        <path d="M876.362,495.558C876.362,495.558 877.744,632.854 743.195,663.49L715.141,607.127C715.141,607.127 812.636,616.558 820.136,495.558L876.362,495.558Z" style="fill:rgb(228,58,37);fill-rule:nonzero;"/>
        <path d="M779.167,635.591C758.917,586.649 693.572,567.218 633.216,592.191C580.09,614.172 548.579,663.223 555.592,708.036C597.538,707.384 642.532,704.665 686.328,698.318C686.328,698.318 660.491,740.081 622.471,776.529C648.037,783.128 677.854,781.297 706.547,769.425C766.904,744.452 799.417,684.532 779.167,635.591Z" style="fill:rgb(228,58,37);fill-rule:nonzero;"/>
        <path d="M404.746,695.984C404.746,695.984 459.949,703.279 535.416,705.14C542.026,657.629 506.036,607.348 448.615,587.897C385.177,566.409 319.626,590.689 302.201,642.129C284.776,693.569 322.077,752.689 385.515,774.178C413.636,783.704 442.168,784.227 466.744,777.385C429.833,740.88 404.746,695.984 404.746,695.984Z" style="fill:rgb(228,58,37);fill-rule:nonzero;"/>
    </g>
</svg>
